X:1765
T:"Tholssonhurven"
R:Polska
N:Här noterad för att spelas med A-bas
M:3/4
L:1/8
K:Dm
Q:1/4=144
"A-bas"(3([G,-E][G,-D][G,E]) [CF][CD] [CF][C-D-]|[C3/2D3/2]F/ E[=B,E] E[B,E]|[C3/2D3/2]E/ (3FDF (3E=B,E|D2 {D}[G,4E4]|!
(3([G,-E]{FE}[G,-D][G,E]) [CF][CD] [CF][C-D-]|[C3/2D3/2]F/ E[=B,E] E[B,E]|[C3/2D3/2]E/ (3FDF (3E=B,E|[C2D2][C4D4]::!
((3A=BA) ^GA ((3BGB)|[A2A2] ^cd [e2e2]|{e}f>a (3geg (3fdf|e>^c (3def (dc)|!
((3A=BA) ^GA ((3BGB)|[A2A2] ^cd [e2e2]|{e}f>a (3geg (3fdf|(3e^ce [D4d4]:|]
(:musicend:)
(:music:)
